X: 243
T: le Savoir vivre
%%VWML:Prestons1794-3056d-p103-0
F:http://www.vwml.org/record/Prestons1794/3056d/p103
Z: 2014 John Chambers <jc:trillian.mit.edu>
B: Preston "Twenty four Country Dances for the Year 1794" p.102 #1
F: http://www.vwml.org/browse/browse-collections-dance-tune-books/browse-prestons1794# 2014-8-10
M: 9/8
L: 1/8
K: 
|:\
Add ded cBA | ded f2e fga |\
agf efd cBA | Bcd AGF EFA :|
|:\
BEB EBE FED | BEB EBA dfa |\
agf efd cBA | Bcd AGF EFA :|
% - - - - - - - - - - - - - - - - - - - - - - - - -
%%begintext align
%% Turn your Part.r with the right hand cast off 1
%% Cu: .| Turn with the left hand :| The Lady
%% fall in at top the Gent.n at bottom, Set 3 and 3
%% top & bottom & turn your Part.r :|. Set 3 & 3
%% sideways & turn your Part.r :|:
%%endtext
% - - - - - - - - - - - - - - - - - - - - - - - - -
T: la Chaumiere
%R: reel
Z: 2014 John Chambers <jc:trillian.mit.edu>
B: Preston "Twenty four Country Dances for the Year 1794" p.102 #2
F: http://www.vwml.org/browse/browse-collections-dance-tune-books/browse-prestons1794# 2014-8-10
M: C|
L: 1/8
K: Bb
|:\
f3f gfed | dccc c3d |\
eded ecBA | B2B2 B4 :|
|:\
"_P"(FB).B.B (Fd).d.d | ecBA (B/A/B/c/) B2 |\
(FB).B.B (Fd).d.d | ecBA B4 :|
|:\
"_F"DF Bd cAB2 | FB df ecd2 |\
fdfd gege | dcBA B4 :|
% - - - - - - - - - - - - - - - - - - - - - - - - -
%%begintext align
%% The 1st Lady set to the 2d Gent.n & turn .| The
%% 1st Gent.n set to the 2d Lady & turn :| Lead down
%% the middle foot it :|. Allemand :|: Lead thro'
%% the bottom come up 1 Cu: .|| Lead thro the
%% top and cast off .||.
%%endtext
% - - - - - - - - - - - - - - - - - - - - - - - - -
